!!!!SEGMENT: 008-1-Sm-001-violoncello.krn
!!!COM: [Chopin, Fryderyk]
!!!OTL: Premier Trio pour Piano, Violon et Violoncelle
!!!OPS: Op. 8
!!!PPR: M. Schlesinger
!!!PPP: Paris
!!!AGN: Trio
!!!NIFC-rismID: 300605222
!!!NIFC-shelfmark: PL-Wbfc 2213/n
!!!OMD: M.M. [quarter] = 152. Allegro con fuoco.
**kern	**dynam
*part2	*part2
*I"TRIO.	*
*staff2	*
*clefF4	*
*k[b-e-]	*
*g:	*
*M2/2	*
*met(c|)	*
*>[A,B,B,C1,A,B,B,C2,D]	*>[A,B,B,C1,A,B,B,C2,D]
=1	=1
*>A	*>A
!LO:TX:b:t=risoluto.	!
2GG	.
4AA'<	.
4BB-'<	.
=2	=2
4C'<	.
4BB-'<	.
2r	.
=3	=3
1rF	.
=4	=4
1rF	.
=5	=5
(>2A	>
2G	.
=6	=6
2F#X)	]
2r	.
=7	=7
!LO:TX:t=P:znak pionowy i poziomy w takcie:problem	!
1rF	.
=8	=8
1rF	.
=9	=9
1rF	.
=10	=10
!LO:TX:b:t=espres.	!
(>4G	.
4c	.
4G	.
4d	.
=11	=11
2e-	>
4d	.
8cL	.
8B-J	]]
=12	=12
!LO:N:vis=4	!
4.G	]
16ALL	.
16B-JJ	.
!	!LO:DY:rj
4F#X)	p
*clefC4	*
4d	.
!!LO:LB:g=original
=13	=13
4G	<
[4g	.
.	[
8gL]	>
8f	.
8e-	.
8dJ	]
=14	=14
8fL	]
8e-J	.
4r	.
2Bn^<t	.
16qqA/LL	.
16qqB/JJ	.
=15	=15
(>4c	<
8dL	.
8e-J	[
4d	>
4c	]
=16	=16
4B-)	.
(>8.GL<	.
16AJk	.
4B-	>
4A	]]
=17	=17
!	!LO:DY:rj
2G)	p
*clefF4	*
(<2D	.
=18	=18
2C	.
2BB-	.
=19	=19
2AA	.
2GG)	.
=20	=20
2DD	.
(>2D	.
!!LO:LB:g=original
=21	=21
2BBn	.
2C	.
=22	=22
2D	.
2E-)	.
=23	=23
(<2FF#X	.
2GG)	.
=24	=24
(<2C	>
2BB-)	]]
=25	=25
(<2C	]
2D/	.
=26	=26
4E-)	.
4r	.
2FF#X	.
=27	=27
2GG	.
(>2C#X	.
=28	=28
2D)	.
(2DD	.
=29	=29
8GG)	.
8r	.
4r	.
(2D^<	.
=30	=30
8G)	.
8r	.
4r	.
(2D	.
=31	=31
8G)	.
8r	.
(>4G	.
8C\)	.
8r	.
(<4CC	.
=32	=32
4DD)	.
2D	.
(>4d	.
!!LO:LB:g=original
=33	=33
4G)	.
4r	.
(>2F	.
=34	=34
4BB-)	.
4r	.
(>2F	.
=35	=35
4BB-)	.
(>4B-	.
4A)	.
(<4FF#X	.
=36	=36
4GG)	.
4r	.
2E-^<	.
=37	=37
1C	.
=38	=38
4E-: 4AA-X: 4CC:	.
4r	]
4r	.
8CC`<L	.
8CC#X`<J	.
=39	=39
8DD`<	.
8r	.
4r	p
(>2E-	.
=40	=40
8D)	.
8r	.
4r	.
*clefC4	*
(>2e-	.
=41	=41
8d)	.
8r	.
4r	.
*clefG2	*
(>2ee-	.
=42	=42
8dd)	.
8r	.
4r	.
2r	.
*clefF4	*
!!LO:LB:g=original
=43	=43
4.G	.
8C#X	.
8D/	.
8r	.
8r	.
(<8FF#X	.
=44	=44
8GG)	.
8r	.
8r	.
(<8C#X	.
8D/)	.
8r	.
8r	.
(<8FF#X	.
=45	=45
4GG)	.
4BB-`<	.
4C`<	.
4r	.
=46	=46
4D	.
4r	.
4F#X^>: 4AA: 4DD:	.
8.DL	.
16DJk	.
=47	=47
(>16GGLL	<
16BB-	.
16D	.
16F#XJJ	[
16GLL	>
16B-	.
16A	.
16GJJ	]
16F#X^<LL)	.
16A	.
16E-^<	.
16AJJ	.
16D^<LL	.
16A	.
16C^<	.
16AJJ	.
!!LO:LB:g=original
=48	=48
16BB-LL	<
16GG	.
16BB-	.
16DJJ	.
.	[
16GLL	.
16B-	.
16A	.
16GJJ	.
16F#X^<LL	.
16A	.
16E-^<	.
16AJJ	.
(>16D^<LL	.
16A	.
16d	.
16cJJ	.
=49	=49
16B-LL	.
16A	.
16G	.
16F#XJJ	.
16GLL	.
16Fn	.
16E-	.
16DJJ	.
16C`<LL	.
16BBn`<	.
16C	.
16DJJ	.
16E-LL	.
16G	.
16c	.
16e-JJ)	.
=50	=50
8en	.
8r	.
*clefC4	*
8c#X^<L	.
8en^<J	.
8g^<L	.
8aJ	.
4b-^<	.
*clefF4	*
!!LO:LB:g=original
=51	=51
4r	.
!LO:TX:b:t=con forza.	!
(>4D	<
4G	.
4B-	[
*clefC4	*
=52	=52
*	*^
4d	.	.
4g^<	.	.
8d)	.	.
8r	.	.
*clefF4	*	*
!LO:TX:t=P:should be only one "fz"	!LO:DY:a:	!
4F#X: 4AA: 4DD:	fz	.
!	!	!LO:DY:a
.	.	p
*	*v	*v
=53|:	=53|:
*>B	*>B
4GG	.
!	!LO:DY:rj
(<4BB-	p<
4C	.
4D/)	[
=54:|	=54:|
*>C	*>C
(>4En	[
4F#X	.
4G	.
4E-X	.
=55	=55
4C	.
4C#X	.
4D	.
4DD)	.
=56	=56
(<8.GGL	.
16AAJk	.
4BB-	.
4C	.
4D/)	.
=57	=57
(<8.GGL	.
16AAJk	.
4BB-	.
4C	.
4D/)	.
!!LO:LB:g=original
=58	=58
(>4En	<
4F#X	[
8GL	>
8Fn	.
8E-X	.
8DJ)	]
=59	=59
!LO:TX:a:t=poco ritt&colon;	!
4C	.
4C#X	.
2D^<	.
=60	=60
4E-	<
!LO:TX:a:B:t=in tempo.	!
4G	[
4A-X	.
8FL	>
8DJ	]
=61	=61
4BB-	[
(>4E-	.
4BB-)	.
(>4F	.
=62	=62
4BB-)	.
.	<
(>4G	.
4A-X)	[
16qqB-/LL	.
16qqA-/JJ	.
8GL	.
8A-J	.
=63	=63
*clefC4	*
(>4B-	.
.	<
4e-	.
4B-	.
4f	.
.	[
=64	=64
4g	>
4e-)	]
*clefF4	*
(>4G	.
4c	.
=65	=65
4B-	<
4Bn	.
4c)	[
(4D	.
!!LO:LB:g=original
=66	=66
8GG)	.
(>4G	.
8c	.
!	!LO:DY:rj
8B-)	f
4G^<	.
(8c	.
=67	=67
*	*^
8B-L)	.	.
(>8A	<	.
8G	.	.
8cJ	.	.
8B-L	.	.
8A	.	<
8B-	.	.
8cJ	[[	.
*	*v	*v
=68	=68
4d)	.
4r	.
2r	.
=69	=69
2r	.
4r	.
[4D	.
=70	=70
4D]	.
(4G	.
4D)	.
(4A	.
=71	=71
4B-)	.
4r	.
(2DD	.
=72	=72
4GG`>)	.
[4d^<	.
!LO:TX:a:t=P:note-head-side tuplet number:problem	!
(12dL]	>
12G	.
12dJ)	.
!LO:TX:a:t=P:note-head-side tuplet number:problem	!
(12dL	.
12D	.
12cJ)	]
=73	=73
!LO:TX:a:t=P:note-head-side tuplet number:problem	!
(12B-L	.
12G	.
12B-J)	.
[4d^<	.
!LO:TX:a:t=P:note-head-side tuplet number:problem	!
(12dL]	.
12D	.
12dJ)	.
!LO:TX:a:t=P:note-head-side tuplet number:problem	!
(12dL	.
12D	.
12cJ)	.
!!LO:LB:g=original
=74	=74
4B-	.
4r	.
(2GG^<	.
=75	=75
!!LO:TX:a:B:t=1.a
*>C1	*>C1
4FF#X)	.
4r	.
2r	.
=76	=76
2BBn	.
2C	.
=77	=77
1D	.
=78:|!	=78:|!
!!LO:TX:a:B:t=2.a
*>C2	*>C2
1FF#X	.
=79	=79
1FFn	.
=80	=80
1EEn	.
=81|!	=81|!
*>D	*>D
!	!LO:DY:rj
(2DD	f
4EEn	.
4FF	.
=82	=82
!	!LO:HP:a
4GG	>
4FF)	]
2r	.
=83	=83
1rF	.
=84	=84
1rF	.
=85	=85
*clefC4	*
(2B-	.
4A	.
8GL<	.
8AJ	.
=86	=86
4c	.
4B-)	.
2r	.
=88	=88
!LO:TX:t=P:znak pionowy i poziomy w takcie:problem	!
1rF	.
*clefF4	*
!!LO:LB:g=original
=89	=89
1rF	.
=90	=90
1rF	.
=91	=91
(>4AA	<
4D	.
4AA	.
4En	[
=92	=92
4G	>
8F)	]
8r	.
2r	.
=93	=93
(>4En	.
.	<
4A	.
4E	.
4Bn	[
=94	=94
4d	>
8c)	]
8r	.
2r	.
=95	=95
(>4En	.
.	<
4A	.
4E	.
4Bn	[
=96	=96
4d	>
8c)	]
8r	.
2r	.
=97	=97
(>4BBn	.
4En	<
4BB	.
4F#X	.
.	[
=98	=98
4A	>
8G)	]
8r	.
2r	.
=99	=99
(2F#X	<
4G	.
4A	.
.	[
*clefC4	*
!!LO:LB:g=original
=100	=100
4c^<	.
8B-)	.
8r	.
2r	.
=101	=101
(>2A	<
4B-	.
4c	[
=102	=102
4e-	>
8d)	]
8r	.
2r	.
=103	=103
(>2c#X	.
4d	.
4en)	.
=104	=104
4f	.
8gL	.
8fJ	.
4en	.
4d	.
=105	=105
!LO:TX:b:t=dolce.	!
2en	<
[2f#X	[
=106	=106
4f#X]	]
4en^<	.
4d#X	.
4dn	]
=107	=107
2.c#X	.
(4g	.
=108	=108
4f#X	.
4d^<	.
2c)	.
=109	=109
1Bn	.
!!LO:LB:g=original
=110	=110
!LO:TX:t=P:rozpoczęcie łuku przy 2c wcześniej:problem	!
(>2c	.
2d-X	.
=111	=111
[1c)	.
=112	=112
4c]	.
(>4e-X	<
4d	.
4f	[
=113	=113
4e-	.
!LO:TX:b:t=sempre	!
4g-X)	.
4r	.
[4A-X	.
=114	=114
4A-X]	.
(>4d-X	.
4A-	.
4e-	.
=115	=115
!	!LO:DY:rj
4A-X	p
!LO:N:vis=4	!
4f)	.
4r	.
!LO:N:vis=2	!
4r	.
*clefF4	*
=116	=116
(>4Dn	.
4A-X	.
4D	.
4B-	.
=117	=117
4D	<
2c-X	[>
4B-	]
=118	=118
4G-X)	]
4r	.
2r	.
*clefC4	*
=119	=119
4B-	.
4e-	.
4B-	.
4f	.
=120	=120
4B-	.
4g	.
2r	.
*clefF4	*
!!LO:LB:g=original
=121	=121
!LO:TX:a:t=1	!
1r	.
=122	=122
(>4C	.
4F	.
4C	.
4G	.
=123	=123
4C	.
4A-X)	.
2r	.
=124	=124
(>4C	.
4F	.
4C	.
4G	.
=125	=125
4C)	<
2A-X	[>
4G	]
*clefC4	*
=126	=126
(>4G	.
4c	<
4G	.
4d	.
.	[
=127	=127
4G	.
4en)	.
2r	.
=128	=128
4G	.
(>4c	.
4G	<
4d	.
=129	=129
4G	[
4en)	.
2r	.
*clefF4	*
=130	=130
[1C	.
=131	=131
2.C]	.
4r	.
*clefC4	*
=132	=132
(>4G	p
4en	.
4G#X	.
4f	.
=133	=133
4A	.
4f#X)	.
2r	.
!!LO:PB:g=original
=134	=134
!LO:TX:a:t=1	!
1rc	.
=135	=135
(>4F#X	p
2d^<)	.
4r	.
=136	=136
1rc	.
*clefF4	*
=137	=137
1rc	.
=138	=138
!LO:TX:a:t=risoluto.	!LO:DY:rj
(<2GG	f
4AA	.
4BB-	.
=139	=139
4C	.
4BB-)	.
2r	.
=140	=140
1rF	.
=141	=141
1rF	.
=142	=142
2A	.
2G	.
=143	=143
2F#X	.
2r	.
=144	=144
!LO:TX:a:t=1	!
1rF	.
=145	=145
2.F	.
8.A-XL	.
16GJk	.
=146	=146
4G	.
(4c	.
4G)	.
4d	.
=147	=147
4G	<
2e-	[>
4d	]
=148	=148
(>4.c	.
8d	.
8e-L	.
8d	.
8c	.
8B-J)	.
!!LO:LB:g=original
=149	=149
(>4.G	.
.	<
16ALL	.
16B-JJ	[
4F#X)	.
4r	.
*clefC4	*
=150	=150
2B-	.
2Bnt	.
16qqA/LL	.
16qqB/JJ	.
=151	=151
4c	.
.	<
[4g	.
8gL]	[
(8f	>
8e-	.
8dJ	]
=152	=152
8fL	>
8e-	.
8d)	]
[8cJ	.
8c]	.
4B-^<	.
[8A	.
=153	=153
8AL]	.
(>8G	.
8B-)	.
16r	.
(>16AJk	.
4.G)	.
8F#X	.
=154	=154
2G	.
*clefF4	*
(2D	.
=155	=155
2C^<	.
2BB-	.
=156	=156
2AA	.
2GG	.
!!LO:LB:g=original
=157	=157
2DD)	.
(>2D	.
=158	=158
2BBn)	.
(>2C	.
.	<
=159	=159
2D	.
2E-)	[
=160	=160
(<2FF#X	.
2GG)	.
=161	=161
(<2C	.
2BB-)	.
=162	=162
(>2C	.
2D	.
=163	=163
4E-)	.
4r	.
(<2FF#X	.
=164	=164
2GG)	.
(<2C#X	.
=165	=165
2D)	.
(<2DD	.
=166	=166
8GG)	.
8r	.
4r	.
(>2D	.
=167	=167
8G)	.
8r	.
4r	.
(>2D	.
!!LO:LB:g=original
=168	=168
8G)	.
8r	.
(>4G	.
8C)	.
8r	.
(<4CC	.
=169	=169
4DD)	.
[4D	.
4D`>]	.
4d	.
=170	=170
4G	.
4r	.
(>2F^<	.
=171	=171
4BB-)	.
4r	.
(>2F^<	.
=172	=172
4BB-)	.
4r	.
(<2AA	.
=173	=173
4GG)	.
4r	.
(<2GG#X	.
=174	=174
4AA)	.
2.AA	.
=175	=175
(<1AA	.
=176	=176
4D/)	.
4r	.
2r	.
=177	=177
4C#X	.
2c#^<	.
8d	.
8r	.
!!LO:LB:g=original
=178	=178
4GG	.
4r	.
2r	.
=179	=179
4AA	.
2A^<	.
(<4AA	.
=180	=180
4D)	.
8r	.
(>8D	.
8GL	<
8A	.
8B-	.
8BnJ	[
=181	=181
4c)	[
8r	.
(>8C	.
8FL	<
8G	.
8G#X	.
8AJ	[
=182	=182
4B-)	.
8r	.
(>8BB-	.
8EnL	.
8F	.
8G	.
8GGJ)	.
=183	=183
4AA`<	.
4BB-`<	.
4GG`<	.
(<4AA	.
=184	=184
4DD)	.
8r	.
8DD	.
(>16GGLL	.
16D	.
16B-	.
16DJJ)	.
(>16GGLL	.
16D	.
16Bn	.
16DJJ)	.
!!LO:LB:g=original
=185	=185
16CLL	.
16G	.
16enJJ	.
16rE	.
8r	.
8CC`<	.
(<16FFLL	.
16C	.
16A	.
16CJJ)	.
(<16FFLL	.
16C	.
16A	.
16CJJ)	.
=186	=186
(16BB-LL	.
16D	.
16d	.
16cJJ	.
16B-LL	.
16A	.
16G	.
16B-JJ	.
16ALL	.
16G	.
16F	.
16EnJJ	.
8D)	.
8GG#X	.
=187	=187
1AA^<	.
=188	=188
!	!LO:DY:rj
(>4D	p
.	<
4F	.
4G	.
4A	[
=189	=189
4D)	.
(<4FF	.
.	<
4GG	.
4AA	.
=190	=190
4BBn	.
4C#X	.
4D/	.
4BB-X)	[
!!LO:LB:g=original
=191	=191
(<4GG	.
4GG#X	.
4AA)	.
(>4A`>	.
=192	=192
8.DL)	.
16EnJk	.
(>4F	.
4G	.
4A	.
=193	=193
4D)	.
(4FF	.
4GG	.
4AA	<
=194	=194
4BBn	.
.	[
4C#X	.
8DL	.
8Cn	.
8BB-X	.
8AAJ)	.
=195	=195
4GG	.
(<4GG#X	.
4AA)	.
4A	.
*clefC4	*
=196	=196
(>4B-	<
4d	.
.	[
4e-	>
8cL	]
8AJ	.
=197	=197
4F)	.
!LO:TX:a:t=dolce.	!
4B-	<
4F	.
4c	[
=198	=198
4F	.
4d	>
4e-	]
8cL	.
8AJ	.
!!LO:LB:g=original
=199	=199
(>4F	.
4B-	.
4F	.
4c	.
=200	=200
4d)	.
*clefF4	*
(>4B-	.
4D	.
4G	.
=201	=201
4F	.
4F#X	.
4G)	.
4AA	.
=202	=202
4D	<
2D	[>
(>4G#X	]
=203	=203
4A)	.
2B-	.
(<4C	.
=204	=204
4F)	.
2F^<	.
(>4F	.
=205	=205
4En)	.
2A^<	.
(<4AA	.
=206	=206
4D/)	.
2G	.
(<4GG	.
=207	=207
4C)	.
(>4F	.
4C)	.
4En	.
=208	=208
!	!LO:DY:rj
[1E-X	ff
=209	=209
1E-]	.
=210	=210
1D	.
!!LO:LB:g=original
=211	=211
(<1D-X	.
=212	=212
2C#X)	.
2r	.
=213	=213
8D	.
*clefC4	*
4d^<	.
(>8f#X	.
8g)	.
4d^<	.
(>8f#	.
=215	=215
8g)	.
4d^<	.
8f#X	.
8gL	>
8e-X	.
8d	.
8cJ	]
=216	=216
8d`>	.
8r	.
4r	.
2r	.
=217	=217
!LO:TX:a:t=1	!
1rc	.
*clefF4	*
=218	=218
!LO:TX:t=P:note-head-side tuplet number:problem	!LO:DY:rj
(>12GGL	f
12D	.
12B-J)	.
!LO:TX:t=P:note-head-side tuplet number:problem	!
(>12B-L	.
12D	.
12GGJ)	.
!LO:TX:t=P:note-head-side tuplet number:problem	!
(>12GGL	.
12D	.
12B-J)	.
!LO:TX:t=P:note-head-side tuplet number:problem	!
(>12B-L	.
12D	.
12GGJ)	.
=219	=219
!LO:TX:t=P:note-head-side tuplet number:problem	!
(>12GGL	.
12D	.
12B-J)	.
!LO:TX:t=P:note-head-side tuplet number:problem	!
(>12B-L	.
12D	.
12GGJ)	.
!LO:TX:t=P:note-head-side tuplet number:problem	!
(>12GGL	.
12D	.
12B-J)	.
!LO:TX:t=P:note-head-side tuplet number:problem	!
(>12B-L	.
12D	.
12GGJ)	.
!!LO:LB:g=original
=220	=220
*Xtuplet	*
(>12DDL<	.
12C	.
12F#XJ)	.
(>12F#L<	.
12C	.
12DDJ)	.
(>12DDL<	.
12C	.
12F#J)	.
(>12F#L<	.
12C	.
12DDJ)	.
=221	=221
(>12DDL<	.
12C	.
12F#XJ)	.
(>12F#L<	.
12C	.
12DDJ)	.
(>12DDL<	.
12C	.
12F#J)	.
(>12F#L<	.
12C	.
12DDJ)	.
=222	=222
!	!LO:DY:rj
(>12GGL	p
12D	.
12B-J)	.
(>12B-L	.
12D	.
12GGJ)	.
(>12GGL	.
12D	.
12B-J)	.
(>12B-L	.
12D	.
12GGJ)	.
=223	=223
(>12GGL	.
12D	.
12B-J)	.
(>12B-L	.
12D	.
12GGJ)	.
(>12GGL	.
12D	.
12B-J)	.
(>12B-L	.
12D	.
12GGJ)	.
=224	=224
(>12DDL<	.
12C	.
12F#XJ)	.
(>12F#L<	.
12C	.
12DDJ)	.
(>12DDL<	.
12C	.
12F#J)	.
(>12F#L<	.
12C	.
12DDJ)	.
!!LO:LB:g=original
=225	=225
(>12DDL<	.
12C	.
12F#XJ)	.
(>12F#L<	.
12C	.
12DDJ)	.
(>12DDL<	.
12C	.
12F#J)	.
(>12F#L<	.
12C	.
12DDJ)	.
=226	=226
(>12GGL	.
12D	.
12B-J)	.
(>12B-L	.
12D	.
12GGJ)	.
(>12GGL	.
12D	.
12B-J)	.
(>12B-L	.
12D	.
12GGJ)	.
=227	=227
(>12GGL	.
12D	.
12BnJ)	.
(>12BL	.
12D	.
12GGJ)	.
(>12GGL	.
12D	.
12BJ)	.
(>12BL	.
12D	.
12GGJ)	.
=228	=228
!LO:TX:t=P:mixed beam:problem	!
(>12CCL/	.
12E-\	.
12cJ\)	.
(>12cL	.
12E-	.
12GGJ)	.
!LO:TX:t=P:mixed beam:problem	!
(>12CCL/	.
12E-\	.
12cJ\)	.
(>12cL	.
12E-	.
12GGJ)	.
=229	=229
!LO:TX:t=P:mixed beam:problem	!
(>12CCL/	.
12E-\	.
12cJ\)	.
!LO:TX:t=P:mixed beam:problem	!
(>12cL\	.
12E-\	.
12CCJ/)	.
(>12DDL<	.
12AA	.
12F#XJ)	.
(>12F#L<	.
12AA	.
12DDJ)	.
!!LO:LB:g=original
=230	=230
!	!LO:DY:rj
(>12GGL	f
12D	.
12B-J)	.
(>12B-L	.
12D	.
12GGJ)	.
(>12GGL	.
12D	.
12B-J)	.
(>12B-L	.
12D	.
12GGJ)	.
=231	=231
(>12GGL	.
12D	.
12B-J)	.
(>12B-L	.
12D	.
12GGJ)	.
(>12GGL	.
12D	.
12B-J)	.
(>12B-L	.
12D	.
12GGJ)	.
=232	=232
(>12DDL<	.
12C	.
12F#XJ)	.
(>12F#L<	.
12C	.
12DDJ)	.
(>12DDL<	.
12C	.
12F#J)	.
(>12F#L<	.
12C	.
12DDJ)	.
=233	=233
(>12DDL<	.
12C	.
12F#XJ)	.
(>12F#L<	.
12C	.
12DDJ)	.
(>12DDL<	.
12C	.
12F#J)	.
(>12F#L<	.
12C	.
12DDJ)	.
=234	=234
!	!LO:DY:rj
(>12GGL	pp
12D	.
12B-J)	.
(>12B-L	.
12D	.
12GGJ)	.
(>12GGL	.
12D	.
12B-J)	.
(>12B-L	.
12D	.
12GGJ)	.
!!LO:LB:g=original
=235	=235
(>12GGL	.
12D	.
12B-J)	.
(>12B-L	.
12D	.
12GGJ)	.
(>12GGL	.
12D	.
12B-J)	.
(>12B-L	.
12D	.
12GGJ)	.
=236	=236
(>12DDL<	.
12C	.
12F#XJ)	.
(>12F#L<	.
12C	.
12DDJ)	.
(>12DDL<	.
12C	.
12F#J)	.
(>12F#L<	.
12C	.
12DDJ)	.
=237	=237
(>12DDL<	.
12C	.
12F#XJ)	.
(>12F#L<	.
12C	.
12DDJ)	.
(>12DDL<	.
12C	.
12F#J)	.
(>12F#L<	.
12C	.
12DDJ)	.
=238	=238
(>12GGL	.
12D	.
12B-J)	<
(>12B-L	.
12D	.
12GGJ)	.
(>12GGL	.
12D	.
12B-J)	.
(>12B-L	.
12D	.
12GGJ)	.
=239	=239
(>12GGL	.
12D	.
12BnJ)	.
(>12BL	.
12D	.
12GGJ)	.
(>12GGL	.
12D	.
12BJ)	.
(>12BL	.
12D	.
12GGJ)	.
!!LO:LB:g=original
=240	=240
4c\ 4E-\ 4CC\	.
4r	.
2r	.
=241	=241
!LO:TX:a:t=pizzi.	!
4DD`<	.
4D`>	.
4D`>	.
!LO:TX:a:t=arco.	!
4r	.
=242	=242
!	!LO:DY:rj
2B- 2D 2GG	f
2D 2GG	.
=243	=243
4D`< 4GG`<	.
4D`< 4GG`<	.
2r	.
=244	=244
(>2B-	pp
2F#X	.
=245	=245
2.G)	.
4r	.
=246	=246
*	*^
[1D [1GG	.	.
!LO:TX:t=P:cres. na górze:problem	!LO:HP:a	!
.	<	<
=247	=247	=247
1D_ 1GG_	.	.
.	.	[
*	*v	*v
=248	=248
!	!LO:DY:rj
2.D] 2.GG]	ff
4D`>	.
=249	=249
4GG	.
4r	.
2r	.
==	==
*-	*-
!!!system-decoration: s1,s2{(s3,s4)}
!!title: @{OTL}; @{OPS} @{ONM} publisher: @{PPR}
!!!RDF**kern: > = above
!!!RDF**kern: < = below
!!!RDF**kern: N = linked
!!!RDF**dynam: > = "dim."
!!!RDF**dynam: < = "cres.", fontstyle="normal"
!!!RDF**kern: i = editorial accidental
!!!ENC: Emilia Ziętek
!!!END: 2019-10-01
!!!EED: Jędrzej Mróz
!!!EST: revision finished 2019-10-10
!!!rism-genre: Trio
!!!rism-key: G minor
!!!rism-opus: op.  8
!!!rism-title: Trio in G minor op.  8
!!!rism-permalink: https://opac.rism.info/search?id=300605222&View=rism
